X: 3441
T: STAR POLKA
R: Polka.
%R: polka
B: James Kerr "Merry Melodies" v.3 p.51 #441
Z: 2016 John Chambers <jc:trillian.mit.edu>
M: 2/4
L: 1/16
K: C
|:\
GAGA G2e2 | f2A2A2 (dc) | BcBc B2a2 | a2g2e2 (EF) |\
GAGA G2e2 | e2d2A2 (dc) | Bdfa g2B2 | c2c2c2z2 H::\
e'2g2g2 fe | g2f2d3c' | d'2f2 f2ef | a2g2e3e' |
e'2e2 e2de | g2f2d3c | Bdfa g3B | c2c2c2 "_D.C."z2 ::\
"TRIO."\
CEGc e2d2 | c2B2 BAG2 | DGBd f2B2 | cdef g4 |\
CEGc e2dc | FAdf a2fd | cBAG ^FGed | c2c2c2 "_D.C."z2 :|

%%sep 1 1 500
%%sep 1 1 500

